images/logo-text.svg

<svg width="254" height="16" viewBox="0 0 254 16" fill="none" xmlns="http://www.w3.org/2000/svg">
<path d="M118.313 15.0001L119.151 12.216H123.952L124.79 15.0001H129.052L124.251 0.45459H118.853L114.052 15.0001H118.313ZM120.046 9.26139L121.495 4.46029H121.609L123.058 9.26139H120.046Z" fill="white"/>
<path d="M130.453 15.0001H134.402V10.1989H135.765L138.322 15.0001H142.612L139.657 9.57389C141.206 8.82819 142.129 7.41489 142.129 5.39779C142.129 2.30119 139.963 0.45459 136.731 0.45459H130.453V15.0001ZM134.402 7.13079V3.60799H135.794C137.179 3.60799 138.01 4.14779 138.01 5.39779C138.01 6.64069 137.179 7.13079 135.794 7.13079H134.402Z" fill="white"/>
<path d="M143.414 3.63639H147.789V15.0001H151.681V3.63639H156.056V0.45459H143.414V3.63639Z" fill="white"/>
<path d="M170.973 5.25586H174.964C174.659 2.33676 172.01 0.255859 168.572 0.255859C164.652 0.255859 161.47 2.95466 161.47 7.75586C161.47 12.3581 164.354 15.199 168.601 15.199C172.408 15.199 175.135 12.8695 175.135 8.89216V6.87516H168.686V9.68766H171.328C171.293 10.9519 170.398 11.7615 168.629 11.7615C166.584 11.7615 165.533 10.2559 165.533 7.69896C165.533 5.17766 166.669 3.69336 168.658 3.69336C169.893 3.69336 170.732 4.26146 170.973 5.25586Z" fill="white"/>
<path d="M180.305 15.0001L181.143 12.216H185.945L186.783 15.0001H191.044L186.243 0.45459H180.845L176.044 15.0001H180.305ZM182.038 9.26139L183.487 4.46029H183.601L185.05 9.26139H182.038Z" fill="white"/>
<path d="M192.445 15.0001H202.275V11.8183H196.394V0.45459H192.445V15.0001Z" fill="white"/>
<path d="M203.871 15.0001H213.7V11.8183H207.82V0.45459H203.871V15.0001Z" fill="white"/>
<path d="M215.297 15.0001H225.751V11.8183H219.245V9.31829H225.24V6.13639H219.245V3.63639H225.779V0.45459H215.297V15.0001Z" fill="white"/>
<path d="M227.738 15.0001H231.687V10.1989H233.05L235.607 15.0001H239.897L236.942 9.57389C238.491 8.82819 239.414 7.41489 239.414 5.39779C239.414 2.30119 237.248 0.45459 234.016 0.45459H227.738V15.0001ZM231.687 7.13079V3.60799H233.079C234.464 3.60799 235.295 4.14779 235.295 5.39779C235.295 6.64069 234.464 7.13079 233.079 7.13079H231.687Z" fill="white"/>
<path d="M239.817 0.45459L245.158 10.4262V15.0001H249.078V10.4262L254.419 0.45459H250.016L247.175 6.36369H247.061L244.221 0.45459H239.817Z" fill="white"/>
<path d="M108.637 0.45459V15H105.342L100.086 7.35798H100.001V15H96.0522V0.45459H99.4045L104.575 8.0682H104.689V0.45459H108.637Z" fill="white"/>
<path d="M83.6118 15V0.45459H94.0947V3.6364H87.5607V6.13639H93.555V9.3182H87.5607V11.8182H94.0663V15H83.6118Z" fill="white"/>
<path d="M69.4839 3.6364V0.45459H82.1259V3.6364H77.7509V15H73.8589V3.6364H69.4839Z" fill="white"/>
<path d="M57.4399 15V0.45459H67.9229V3.6364H61.3888V6.13639H67.3831V9.3182H61.3888V11.8182H67.8945V15H57.4399Z" fill="white"/>
<path d="M46.0137 15V0.45459H49.9625V11.8182H55.8432V15H46.0137Z" fill="white"/>
<path d="M32.8887 15V0.45459H39.1671C40.2466 0.45459 41.1912 0.667658 42.0009 1.09379C42.8105 1.51993 43.4402 2.11888 43.8901 2.89066C44.3399 3.66244 44.5648 4.56443 44.5648 5.59662C44.5648 6.63828 44.3328 7.54027 43.8687 8.30258C43.4095 9.06489 42.7632 9.652 41.9298 10.0639C41.1012 10.4759 40.133 10.6818 39.025 10.6818H35.275V7.61366H38.2296C38.6936 7.61366 39.0889 7.53317 39.4156 7.37218C39.7471 7.20646 40.0004 6.97209 40.1756 6.66906C40.3555 6.36603 40.4455 6.00855 40.4455 5.59662C40.4455 5.17995 40.3555 4.82484 40.1756 4.53128C40.0004 4.23299 39.7471 4.00572 39.4156 3.84947C39.0889 3.68848 38.6936 3.60799 38.2296 3.60799H36.8375V15H32.8887Z" fill="white"/>
<path d="M31.0177 0.45459V15H27.0688V0.45459H31.0177Z" fill="white"/>
<path d="M13.7095 15V0.45459H19.9879C21.0674 0.45459 22.012 0.651086 22.8217 1.04408C23.6313 1.43707 24.261 2.00288 24.7109 2.74152C25.1607 3.48015 25.3856 4.36556 25.3856 5.39776C25.3856 6.43942 25.1536 7.31773 24.6896 8.03269C24.2303 8.74765 23.584 9.28742 22.7506 9.65201C21.922 10.0166 20.9538 10.1989 19.8458 10.1989H16.0958V7.13071H19.0504C19.5144 7.13071 19.9097 7.07389 20.2364 6.96025C20.5679 6.84188 20.8212 6.65485 20.9964 6.39917C21.1763 6.14349 21.2663 5.80969 21.2663 5.39776C21.2663 4.98109 21.1763 4.64255 20.9964 4.38214C20.8212 4.11698 20.5679 3.92286 20.2364 3.79975C19.9097 3.67191 19.5144 3.60799 19.0504 3.60799H17.6583V15H13.7095ZM22.2322 8.32388L25.8685 15H21.5788L18.0276 8.32388H22.2322Z" fill="white"/>
<path d="M-0.418457 3.6364V0.45459H12.2235V3.6364H7.84856V15H3.95653V3.6364H-0.418457Z" fill="white"/>
</svg>

<svg xmlns="http://www.w3.org/2000/svg" width="254" height="16" fill="none">
  <path fill="#fff" d="m118.313 15 .838-2.784h4.801L124.79 15h4.262L124.251.455h-5.398L114.052 15h4.261Zm1.733-5.739 1.449-4.8h.114l1.449 4.8h-3.012ZM130.453 15h3.949V10.2h1.363L138.322 15h4.29l-2.955-5.426c1.549-.746 2.472-2.16 2.472-4.176 0-3.097-2.166-4.943-5.398-4.943h-6.278V15Zm3.949-7.87V3.609h1.392c1.385 0 2.216.54 2.216 1.79 0 1.243-.831 1.733-2.216 1.733h-1.392ZM143.414 3.636h4.375V15h3.892V3.636h4.375V.455h-12.642v3.181ZM170.973 5.256h3.991c-.305-2.92-2.954-5-6.392-5-3.92 0-7.102 2.699-7.102 7.5 0 4.602 2.884 7.443 7.131 7.443 3.807 0 6.534-2.33 6.534-6.307V6.875h-6.449v2.813h2.642c-.035 1.264-.93 2.073-2.699 2.073-2.045 0-3.096-1.505-3.096-4.062 0-2.521 1.136-4.006 3.125-4.006 1.235 0 2.074.568 2.315 1.563ZM180.305 15l.838-2.784h4.802l.838 2.784h4.261L186.243.455h-5.398L176.044 15h4.261Zm1.733-5.739 1.449-4.8h.114l1.449 4.8h-3.012ZM192.445 15h9.83v-3.182h-5.881V.455h-3.949V15ZM203.871 15h9.829v-3.182h-5.88V.455h-3.949V15ZM215.297 15h10.454v-3.182h-6.506v-2.5h5.995V6.136h-5.995v-2.5h6.534V.455h-10.482V15ZM227.738 15h3.949V10.2h1.363L235.607 15h4.29l-2.955-5.426c1.549-.746 2.472-2.16 2.472-4.176 0-3.097-2.166-4.943-5.398-4.943h-6.278V15Zm3.949-7.87V3.609h1.392c1.385 0 2.216.54 2.216 1.79 0 1.243-.831 1.733-2.216 1.733h-1.392ZM239.817.455l5.341 9.971V15h3.92v-4.574l5.341-9.971h-4.403l-2.841 5.909h-.114l-2.84-5.91h-4.404ZM108.637.455V15h-3.295l-5.256-7.642h-.085V15h-3.949V.455h3.352l5.171 7.613h.114V.455h3.948ZM83.612 15V.455h10.483v3.181H87.56v2.5h5.994v3.182h-5.994v2.5h6.505V15H83.612ZM69.484 3.636V.455h12.642v3.181H77.75V15h-3.892V3.636h-4.375ZM57.44 15V.455h10.483v3.181h-6.534v2.5h5.994v3.182H61.39v2.5h6.505V15H57.44ZM46.014 15V.455h3.948v11.363h5.881V15h-9.83ZM32.889 15V.455h6.278c1.08 0 2.024.213 2.834.639a4.64 4.64 0 0 1 1.89 1.797c.449.771.674 1.673.674 2.706 0 1.041-.232 1.943-.696 2.706a4.571 4.571 0 0 1-1.94 1.76c-.828.413-1.796.619-2.904.619h-3.75V7.614h2.955c.464 0 .859-.08 1.186-.242.331-.166.584-.4.76-.703.18-.303.27-.66.27-1.072 0-.417-.09-.772-.27-1.066a1.693 1.693 0 0 0-.76-.682c-.327-.16-.722-.241-1.186-.241h-1.392V15h-3.95ZM31.018.455V15h-3.95V.455h3.95ZM13.71 15V.455h6.278c1.08 0 2.024.196 2.834.59.81.392 1.439.958 1.889 1.697.45.738.675 1.624.675 2.656 0 1.041-.232 1.92-.696 2.635-.46.715-1.106 1.254-1.94 1.619-.828.365-1.796.547-2.904.547h-3.75V7.13h2.954c.464 0 .86-.057 1.186-.17a1.5 1.5 0 0 0 .76-.562c.18-.256.27-.59.27-1.001 0-.417-.09-.755-.27-1.016a1.508 1.508 0 0 0-.76-.582c-.326-.128-.722-.192-1.186-.192h-1.392V15H13.71Zm8.522-6.676L25.87 15h-4.29l-3.551-6.676h4.204ZM-.418 3.636V.455h12.641v3.181H7.85V15H3.957V3.636H-.418Z"/>
</svg>
